!!!COM: Scriabin, Alexander
!!!OTL@@FR: Prelude
!!!OTL@@EN:
!!!OPR@@FR: 4 Preludes
!!!OPR@@EN:
!!!OPS: 33
!!!ONM: 4
!!!ODT: 1900
!!!AGN: Prelude
**kern	**kern	**dynam
*staff2	*staff1	*staff1/2
*Ipiano	*Ipiano	*
*clefF4	*clefG2	*
*k[b-e-a-d-]	*k[b-e-a-d-]	*
*A-:	*A-:	*
*M5/4	*M5/4	*
*	*^	*
4CC 4C	8a-L	4A- 4e-	.
.	8e-J	.	.
=1	=1	=1	=1
4C-X 4c-X	12gL	4An 4e-	.
.	12g-X	.	.
.	24r	.	.
.	24ee-J	.	.
4CC-X 4C-	[2f	[2A [2e-	.
4CCC-X 4CC-	.	.	.
4CC- 4C-	4f]	4A] 4e-]	.
4CCn 4Cn	8a-XL	4A-X 4e-	.
.	8e-J	.	.
=2	=2	=2	=2
4C-X 4c-X	12gL	4An 4e-	.
.	12g-X	.	.
.	24r	.	.
.	24ee-J	.	.
4CC-X 4C-	[2f	[2A [2e-	.
4CCC-X 4CC-	.	.	.
4CC- 4C-	4f]	4A] 4e-]	.
4CC- 4C-	8fL	4A 4e-	.
.	8f#XJ	.	.
=3	=3	=3	=3
*	*	*^	*
4BB- 4B-	12ccnL	4e-	4A-X\	.
.	12g	.	.	.
.	24r	.	.	.
.	24ee-Jk	.	.	.
4BBB- 4BB-	[2gg	[2cc	[2e-\	.
4BBBB- 4BBB-	.	.	.	.
4BBB- 4BB-	4gg]	4cc]	4e-\]	.
4BB- 4B-	8cc#XL	4a-	8en\L	.
.	8ddnJ	.	8f\J	.
*	*	*v	*v	*
=4	=4	=4	=4
4E- 4B- 4e-	2.ddn	[2.g	.
4EE- 4E-	.	.	.
4EEE- 4EE-	.	.	.
4EE- 4E-	4ee-	4g]	.
4GG 4G	8ee-L	4e- 4b-	.
.	8b-J	.	.
*	*	*^	*
=5	=5	=5	=5	=5
4G-X 4g-X	12ddnL	4b-	4en\	.
.	12dd-X	.	.	.
.	24r	.	.	.
.	24bb-J	.	.	.
4GG-X 4G-	[2cc	4.b-	8e-X\L	.
.	.	.	8en\J	.
4GGG-X 4GG-	.	.	8c\L	.
.	.	8an	[8e\J	.
4GG- 4G-	4cc]	4b-	8e\L]	.
.	.	.	8e\J	.
4FF 4F	8dd-L	4a-X	8f\L	.
.	8a-J	.	8d-\J	.
=6	=6	=6	=6	=6
4F-X 4f-x	12ccL	4a-	4dn\	.
.	12cc-X	.	.	.
.	24r	.	.	.
.	24aa-J	.	.	.
4FF-X 4F-	[2b-	4.a-	8d-X\L	.
.	.	.	8dn\J	.
4FFF-X 4FF-	.	.	8B-\L	.
.	.	8g	[8d\J	.
4FF- 4F-	4b-]	4a-	8d\L]	.
.	.	.	8d\J	.
4FF- 4F-	8b-L	4a-	4d\	.
.	8bnJ	.	.	.
=7	=7	=7	=7	=7
4E- 4e-	12ffL	4a-	4d-X\	.
.	12cc	.	.	.
.	24r	.	.	.
.	24aa-Jk	.	.	.
4EE- 4E-	2.ccc	4.ff	8cc\L	.
.	.	.	8dd-\J	.
4EEE- 4EE-	.	.	2a-\	.
.	.	8een	.	.
4EE- 4E-	.	8ffL	.	.
.	.	8dd-J	.	.
4E- 4e-	8ff#XL	4dd-	8an\L	.
.	8ggJ	.	8b-\J	.
*	*	*v	*v	*
=8	=8	=8	=8
4A- 4e- 4a-	2.gg	[2.cc	.
4AA- 4A-	.	.	.
4AAA- 4AA-	.	.	.
4AA- 4A-	4aa-	4cc]	.
8AA-L 8A-	4raa	4rc	.
8EE-J 8E-	.	.	.
=9	=9	=9	=9
12GGL 12G	8e-L 8a- 8cc	4rc	.
12GG-X 12G-X	.	.	.
.	8cJ	.	.
24r	.	.	.
24E-Jk 24e-	.	.	.
4FF 4F	8AnL 8dn	4rc	.
.	8cJ 8e-	.	.
4FFF 4FF	8E-L	4rc	.
.	[8cJ 8g#X	.	.
4FF 4F	8c##L 8e- 8an	4rc	.
.	8AJ	.	.
4FF 4F	12bnL	4e- 4a	.
.	12cc	.	.
.	24r	.	.
.	24cc#XJk	.	.
*	*v	*v	*
=10	=10	=10
4AAn 4D#X 4c#X	8anL 8cc#X 8ff	.
.	8fJ	.
4AAAn 4AA	8c#XL 8g#X	.
.	8fJ 8a	.
4AAAAn 4AAA	8c#L	.
.	[8aJ 8dd#X	.
4AA 4En 4c#	8aL] 8cc# 8een	.
.	8enJ	.
8AAL 8An	4r	.
8EEnJ 8E	.	.
=11	=11	=11
*	*^	*
12AAnL 12An	8enL 8an 8cc#X	4rc	.
12AA-X 12A-X	.	.	.
.	8c#XJ	.	.
24r	.	.	.
24F-XJk 24f-X	.	.	.
4GG 4G	8dnL	4B-	.
.	8d-XJ 8e-X	.	.
4GGG 4GG	8E-L	4rc	.
.	[8d-J 8an	.	.
4GG 4G	8d-L] 8e- 8b-	4rc	.
.	8B-J	.	.
4GG 4G	12ddnL	4d-X 4e- 4b-	.
.	12ee-	.	.
.	24r	.	.
.	24b-Jk	.	.
=12	=12	=12	=12
4G-X 4g-X	8e-L 8b-	8rc	.
.	8cJ	[8c	.
4GG-X 4G-	8dnL	4c]	.
.	8e-J	.	.
4GGG-X 4GG-	8E-L	4rc	.
.	[8cJ 8gn	.	.
4GG- 4G-	8cL] 8e- 8a-	4rc	.
.	8A-J	.	.
4GG- 4G-	8e-L 8a- 8cc	4rc	.
.	8A-J	.	.
=13	=13	=13	=13
4F 4f	8a-L 8cc	4rc	.
.	8cJ	.	.
4FF 4F	8gL	4e-	.
.	8a-J	.	.
4FFF 4FF	8A-L	4rc	.
.	8e-J 8g	.	.
4FF 4F	8a-L 8dd-	4rc	.
.	8d-J	.	.
4FF 4F	8a-L 8ee-	4rc	.
.	8cJ	.	.
=14	=14	=14	=14
4F-X 4f-X	8ee-L 8aa-	4rc	.
.	8a-J	.	.
4FF-X 4F-	8ddnL	4a-	.
.	8ee-J	.	.
4FFF-X 4FF-	8e-L	4rc	.
.	8a-J 8cc#X	.	.
4FF- 4F-	8a-L 8dd	4rc	.
.	8dnJ	.	.
4FF- 4F-	8b-L	4d 4a-	.
.	8bnJ	.	.
=15	=15	=15	=15
*	*	*^	*
4E- 4e-	8a-L 8cc 8ffn	4rc	4r	.
.	8d-XJ	.	.	.
4EE- 4E-	8ggL	4cc	4r	.
.	8ffJ 8aa-	.	.	.
4EEE- 4EE-	8a-L	4rc	4r	.
.	[8ffJ 8bbn	.	.	.
4EE- 4E-	8ffL] 8aa- 8ccc	4rc	4r	.
.	8ccJ	.	.	.
4E- 4e-	8ff#XL	4dd-	8an\L	.
.	8ggJ	.	8b-X\J	.
*	*	*v	*v	*
=16	=16	=16	=16
4A- 4e- 4a-	2.gg	[2.cc	.
4AA- 4A-	.	.	.
4AAA- 4AA-	.	.	.
4AA- 4A-	4aa-	4cc]	.
4GG-X 4G-X	8e-L 8a- 8cc	4rc	.
.	8A-J	.	.
=17	=17	=17	=17
4F 4f	8a-L 8cc	4rc	.
.	8cJ	.	.
4FF 4F	8gL	4e-	.
.	8a-J	.	.
4FFF 4FF	8A-L	4rc	.
.	8e-J 8g	.	.
4FF 4F	8a-L 8dd-	4rc	.
.	8d-J	.	.
4FF 4F	8a-L 8ee-	4rc	.
.	8cJ	.	.
=18	=18	=18	=18
4F-X 4f-X	8ee-L 8aa-	4rc	.
.	8a-J	.	.
4FF-X 4F-	8ddnL	4a-	.
.	8ee-J	.	.
4FFF-X 4FF-	8e-L	4rc	.
.	[8a-J 8cc#X	.	.
4FF- 4F-	8a-L] 8dd	4rc	.
.	8dnJ	.	.
4FF- 4F-	8b-L	4d 4a-	.
.	8bnJ	.	.
=19	=19	=19	=19
*	*	*^	*
4E- 4e-	8a-L 8cc 8ffn	4rc	4r	.
.	8d-XJ	.	.	.
4EE- 4E-	8ggL	4cc	4r	.
.	8ffJ 8aa-	.	.	.
4EEE- 4EE-	8a-L	4rc	4r	.
.	[8ffJ 8bbn	.	.	.
8.EE- 8.E-	8ffL] 8aa- 8ccc	4rc	4r	.
.	16ccJk	.	.	.
16r	16raa	.	.	.
4E- 4e-	8ff#XL	4dd-	8an\L	.
.	8ggJ	.	8b-X\J	.
*	*	*v	*v	*
=20	=20	=20	=20
4A- 4e- 4a-	2.gg	[2.cc	.
4AA- 4A-	.	.	.
4AAA- 4AA-	.	.	.
4AA- 4A-	4aa-	4cc]	.
4r	4raa	4rc	.
*	*v	*v	*
==	==	==
*-	*-	*-
!!!system-decoration: {(*)}
!!!ENC: Bryan Jacob Bell
!!!END: November 2021 to April 2022
!!!PED: Konstantin Igumnov and Yakov Milstein
!!!PTL: A.N. Skryabin: Polnoe sobranie sochinenii dlia fortepiano (Muzgiz)
